src/img/advantages__search.svg

<svg width="160" height="160" fill="none" xmlns="http://www.w3.org/2000/svg">
  <path d="M55.1187 0C85.511 0 110.237 24.726 110.237 55.1187C110.237 67.6242 106.048 79.168 99.0038 88.4269L110.17 99.5927C110.24 99.6636 110.305 99.7382 110.366 99.8149C111.28 99.6245 112.22 99.5246 113.175 99.5246C116.82 99.5246 120.249 100.945 122.828 103.524L156.002 136.698C158.58 139.276 160 142.703 160 146.35C160 149.996 158.58 153.424 156.002 156.001C153.423 158.58 149.995 160 146.35 160C142.704 160 139.276 158.58 136.697 156.001L103.522 122.826C100.944 120.249 99.5243 116.821 99.5243 113.175C99.5243 112.219 99.6241 111.28 99.8146 110.366C99.7378 110.305 99.6635 110.24 99.5927 110.169L88.4273 99.0039C79.168 106.049 67.6242 110.237 55.1187 110.237C24.7263 110.237 0 85.5114 0 55.1187C0 24.726 24.7263 0 55.1187 0ZM140.363 152.336C141.962 153.935 144.088 154.816 146.35 154.816C148.611 154.816 150.737 153.935 152.337 152.335C153.936 150.737 154.816 148.611 154.816 146.35C154.816 144.088 153.936 141.962 152.337 140.364L122.376 110.403L110.403 122.376L140.363 152.336ZM106.756 118.693L118.688 106.761C117.107 105.401 115.143 104.713 113.175 104.713C111.007 104.713 108.838 105.539 107.187 107.189C105.588 108.788 104.708 110.913 104.708 113.175C104.708 115.223 105.432 117.158 106.756 118.693ZM102.037 105.284C102.479 104.663 102.972 104.073 103.522 103.524C104.072 102.974 104.663 102.48 105.284 102.038L95.6625 92.4173C94.6258 93.5435 93.5428 94.6265 92.4166 95.6632L102.037 105.284ZM55.1187 105.054C82.6531 105.054 105.054 82.6531 105.054 55.1187C105.054 27.5842 82.6531 5.18357 55.1187 5.18357C27.5842 5.18357 5.18358 27.5842 5.18358 55.1187C5.18358 82.6531 27.5842 105.054 55.1187 105.054Z" fill="#1E89E3"/>
  <path d="M55.1186 11.0583C79.4136 11.0583 99.179 30.8237 99.179 55.1187C99.179 79.4138 79.4136 99.1791 55.1186 99.1791C30.8235 99.1791 11.0582 79.4138 11.0582 55.1187C11.0582 30.8237 30.8235 11.0583 55.1186 11.0583ZM55.1186 93.9955C76.5551 93.9955 93.9954 76.5556 93.9954 55.1187C93.9954 33.6819 76.5551 16.2419 55.1186 16.2419C33.6821 16.2419 16.2418 33.6819 16.2418 55.1187C16.2418 76.5556 33.6821 93.9955 55.1186 93.9955Z" fill="#1E89E3"/>
  <path d="M37.1218 27.4514C38.3209 26.6697 39.9264 27.008 40.7081 28.2075 41.4898 29.4067 41.1511 31.0125 39.952 31.7939 32.0301 36.9567 27.3006 45.6762 27.3006 55.1186 27.3006 61.5694 29.5586 67.8563 33.6588 72.8208 34.5704 73.9242 34.4145 75.5581 33.3108 76.4697 32.8277 76.8688 32.243 77.0631 31.6617 77.0631 30.9153 77.0631 30.1744 76.742 29.6619 76.1217 24.7966 70.2308 22.117 62.7716 22.117 55.1189 22.1167 43.9176 27.726 33.5749 37.1218 27.4514zM49.1213 22.661C51.0869 22.2999 53.1047 22.1167 55.1187 22.1167 56.5504 22.1167 57.7104 23.2771 57.7104 24.7085 57.7104 26.1398 56.5504 27.3003 55.1187 27.3003 53.4178 27.3003 51.7151 27.4547 50.0578 27.7592 49.8992 27.7882 49.7419 27.8024 49.5864 27.8024 48.36 27.8024 47.2701 26.9277 47.0403 25.6785 46.7818 24.2706 47.7134 22.9198 49.1213 22.661z" fill="#1E89E3"/>
</svg>

<svg width="160" height="160" fill="none" xmlns="http://www.w3.org/2000/svg"><path d="M55.119 0c30.392 0 55.118 24.726 55.118 55.119 0 12.505-4.189 24.049-11.233 33.308l11.166 11.166c.07.07.135.145.196.222.914-.19 1.854-.29 2.809-.29 3.645 0 7.074 1.42 9.653 3.999l33.174 33.174A13.56 13.56 0 01160 146.35c0 3.646-1.42 7.074-3.998 9.651A13.561 13.561 0 01146.35 160c-3.646 0-7.074-1.42-9.653-3.999l-33.175-33.175a13.557 13.557 0 01-3.998-9.651c0-.956.1-1.895.29-2.809a2.563 2.563 0 01-.221-.197L88.427 99.004c-9.259 7.045-20.803 11.233-33.308 11.233C24.726 110.237 0 85.511 0 55.119 0 24.726 24.726 0 55.119 0zm85.244 152.336a8.411 8.411 0 005.987 2.48 8.412 8.412 0 005.987-2.481 8.406 8.406 0 002.479-5.985c0-2.262-.88-4.388-2.479-5.986l-29.961-29.961-11.973 11.973 29.96 29.96zm-33.607-33.643l11.932-11.932a8.442 8.442 0 00-5.513-2.048 8.446 8.446 0 00-5.988 2.476 8.408 8.408 0 00-2.479 5.986 8.4 8.4 0 002.048 5.518zm-4.719-13.409c.442-.621.935-1.211 1.485-1.76.55-.55 1.141-1.044 1.762-1.486l-9.622-9.62a55.517 55.517 0 01-3.245 3.245l9.62 9.621zm-46.918-.23c27.534 0 49.935-22.4 49.935-49.935 0-27.535-22.4-49.935-49.935-49.935-27.535 0-49.935 22.4-49.935 49.935 0 27.534 22.4 49.935 49.935 49.935z" fill="#1E89E3"/><path d="M55.119 11.058c24.295 0 44.06 19.766 44.06 44.06 0 24.296-19.765 44.061-44.06 44.061-24.296 0-44.06-19.765-44.06-44.06s19.764-44.06 44.06-44.06zm0 82.938c21.436 0 38.876-17.44 38.876-38.877S76.555 16.242 55.12 16.242c-21.437 0-38.877 17.44-38.877 38.877s17.44 38.877 38.877 38.877z" fill="#1E89E3"/><path d="M37.122 27.451a2.591 2.591 0 112.83 4.343c-7.922 5.163-12.651 13.882-12.651 23.325 0 6.45 2.258 12.737 6.358 17.702a2.592 2.592 0 11-3.997 3.3 33.054 33.054 0 01-7.545-21.002c0-11.201 5.609-21.544 15.005-27.668zm12-4.79a33.278 33.278 0 015.997-.544 2.592 2.592 0 110 5.183c-1.701 0-3.404.155-5.061.46a2.593 2.593 0 01-.937-5.098z" fill="#1E89E3"/></svg>
